X:1
T:Si ie me plains
T:Nicolas Pagnier
T:Source : Livre I de 25 chansons nouvelles à 4 parties---Paris---N.du Chemin---1549. Editor : André Vierendeels (09/02/18). Notes : Original clefs : C1, C3, C4, F3 Original note values have been halved Editorial accidentals above the stave m34 and 35, in B voice : slightly adapted by the editor 
T:Si ie me plains
T:©
T:©
T:©
C:Nicolas Pagnier
Z:©
%%score [ 1 [ 2 3 ] 4 ]
L:1/8
Q:1/4=120
M:2/2
K:F
V:1 treble nm="Soprano" snm="S"
V:2 treble-8 nm="Tenor 1" snm="T 1"
V:3 treble-8 nm="Tenor 2" snm="T 2"
V:4 bass nm="Bass" snm="B"
V:1
 F6 F2 | G4 B4 | z2 A2 c4- | c2 c2 c2 c2 | d4 c4 | z2 A2 G2 F2 | c3 B A2 G2 | F2 E2 D3 C | %8
w: Si ie|me plains,|ce n'est|_ sans ap- pa-|re- ce,|ay- ant du|mal trop plus que|ne puis di- *|
w: SI mon|mal- heur|met- toye|_ en e- vi-|den- ce,|beau- coup plus|grand sen- ti- roye|mon mar- ty- *|
 DE F4 E2 |1 F4 z4 :|2 F2 c4 A2 || B4 A2 G2 | A2 A2 FEFG | ABcB AG B2- | BA A4 G2 | A2 A2 d4 | %16
w: |re,|re, fort le|ni- er est|ce que ie _ _ _|_ _ _ _ _ _ de-|* * si- *|re, ne vou-|
w: |(re)|||||||
 d2 c4 B2 | A2 G2 F2 F2 | E4 z2 c2 | c2 c2 A4- |: A2 A2 B2 B2 | A2 F2 A4 | G4 z2 G2 | G2 G2 c4 | %24
w: lant point le|plus fai- re'ap- pa-|roir, mais|chas- cun iour|_ mon mal si|fort em- pi-|re, que|sans le di-|
w: ||||||||
 c2 C2 C2 C2 | F4 E4 | z2 C2 F3 E | D2 D2 C4 | z2 G2 c3 B | A2 GF ED G2- |[M:2/4] G2 F2- | %31
w: re, que sans le|di- re|mort le fe-|ra sça- voir,|mort le _|_ fe- * * * ra|_ sça-|
w: |||||||
[M:2/2] F2 E2 F4 | z2 c2 c2 c2 |1[M:2/4] (A4 :|2 F2) E2 ||[M:2/2] F8 |] %36
w: * * voir,|mais chas- cun|iour|sça- *|voir.|
w: |||||
V:2
 c4 B2 A2 | c4 z2 B2 | A2 A2 G2 G2 | A2 c3 BAG | F4 z2 f2 | e2 f2 c4- | c4 z2 c2- | c2 c2 A2 B2- | %8
w: Si ie me|plains, ce|n'est sans ap- pa-|ren- * * * *|ce, ay-|ant du mal|_ trop|_ plus que ne|
w: Si mon mal-|heur met-|toye en e- vi-|den- * * * *|ce, beau-|coup plus grand|_ sen-|* ti- roye mon|
 B2 c2 c4 |1 c4 z4 :|2 c4 z2 c2 || d2 d2 c2 e2 | f3 e d2 d2 | cBAG F2 f2- | fe f2 d4 | z2 f2 f4 | %16
w: _ puis di-|re,|re, fort|le ni- er est|ce que ie de-|si- * * * * *|* * * re,|ne vou-|
w: _ mar- ty-||||||||
 d2 f4 f2 | e2 c2 c2 B2 | c2 e2 e2 e2 | f8- |: f4 z2 f2 | f6 c2 | e2 e2 d4 | c2 e2 e2 e2 | f4 e4 | %25
w: lant point le|plus fai- re'ap- pa-|roir, mais chas- cun|iour|_ mon|mal si|fort em- pi-|re, que sans le|di- re,|
w: |||||||||
 z2 F2 c3 B | A2 G2 F2 A2 | G4 z2 A2 | c3 B A2 G2 | A2 A2 G2 G2 |[M:2/4] A2 B2 |[M:2/2] c8 | %32
w: mort le _|_ fe- ra sça-|voir, mort|le _ _ fe-|ra sça- voir, fe-|ra sça-|voir,|
w: |||||||
 z2 f2 f2 e2 |1[M:2/4] (f4 :|2 c4-) ||[M:2/2] c8 |] %36
w: mais cha- cun|iour|voir.|_|
w: ||||
V:3
 z4 F4 | EDEF G2 G2 | F4 z2 C2 | F2 G2 A2 A2 | B4 AGAB | c4 z2 A2 | G2 F2 c3 B | A2 G2 F4- | %8
w: Si|ie _ _ _ _ me|plains, ce|n'est sans ap- pa-|ran- * * * *|ce, ay-|ant du mal plus|que ie ne|
w: Si|mon _ _ _ _ mal-|heur, met-|toye en e- vi-|den- * * * *|ce, beau-|coup plus grand sen-|ti- roye mon|
 F2 A2 G4 |1 F4 z4 :|2 F8- || F4 z2 c2- | c2 A2 B4 | A2 A2 d2 d2 | c2 A2 B4 | A2 c2 B4 | B2 A4 d2 | %17
w: _ puis di-|re,|re,|_ fort|_ le ni-|er est ce que|ie de- si-|re, ne vou-|lant point le|
w: _ mar- ty-|re||||||||
 c3 B A2 F2 | G2 G2 G2 G2 | A2 c2 c2 c2 |: A2 A2 d2 d2 | cBAG FGAB | cd c2 c2 B2 | c4 z2 C2 | %24
w: plus fai- re'ap- pa-|roir, mais chas- cun|iour, mais chas- cun|iour mon mal si|fort _ _ _ _ _ _ _|_ _ em- pi- *|re, que|
w: |||||||
 C2 C2 G4 | F4 z2 G2 | c3 B A2 c2- | c2 B2 c4 | G4 z2 G2 | c6 B2 |[M:2/4] A2 GF | %31
w: sans le di-|re mort|le _ _ fe-|* ra sça-|voir, mort|le fe-|ra _ _|
w: |||||||
[M:2/2] G2 G2 F4- | F4 z2 c2 |1[M:2/4] c2 c2 :|2 G2 G2 ||[M:2/2] F8 |] %36
w: _ sça- voir,|_ mais|chas- cun|(ra)- sça-|voir.|
w: |||||
V:4
 F,4 B,,2 D,2 | C,3 B,,/A,,/ G,,A,,B,,C, | D,E, F,4 E,2 | F,2 C,2 F,2 F,2 | D,2 B,,2 F,4 | %5
w: Si ie me|plains, _ _ _ _ _ _|_ _ _ _|* ce n'est ans|ap- pa- ren-|
w: Si mon mal-|heur _ _ _ _ _ _|_ _ _ _|* met- toye en|e- vi- den-|
 C,2 F,2 E,2 F,2 | C,2 F,2 F,2 E,2 | F,2 C,2 D,C,B,,A,, | B,,2 F,,2 C,4 |1 F,,4 z4 :|2 %10
w: ce, ay- ant du|mal trop plus que|ne puis di- * * *||re,|
w: ce, beau- coup plus|grand sen- ti- roye|mon mar- ty- * * *|||
 F,,4 z2 F,2 || D,2 B,,2 F,2 C,2 | F,4 z2 B,,2 | F,6 B,,2 | F,2 F,2 G,4 | F,2 F,2 B,,4 | %16
w: re, fort|le ni- er est|ce, est|ce que|ie de- si-|re, ne vou-|
w: ||||||
 B,,2 F,4 B,,2 | C,2 C,2 D,2 D,2 | C,2 C,2 C,2 C,2 | F,,4 F,4 |: F,2 F,2 B,,2 B,,2 | F,6 F,2 | %22
w: lant point le|plus fai- re'ap- pa-|roir, mais cha- cun|iour, mais|chas- cun iour mon|mal si|
w: ||||||
 C,2 C,2 G,,4 | C,2 C,2 C,B,,A,,G,, | F,,G,,A,,B,, C,D,E,F, | D,4 C,4- | C,4 z2 F,,2 | %27
w: fort em- pi-|re, que sans _ _ _|_ _ _ _ le _ _ _|di- re,|_ mort|
w: |||||
 G,,2 G,,2 A,,2 F,,2 | C,8 | z2 F,,2 C,2 G,,2 |[M:2/4] D,4 |[M:2/2] C,4 F,,2 F,2 | %32
w: le fe- ra sça-|voir,|mort le fe-|ra|sça- voir, mais|
w: |||||
 F,2 F,2 C,2 C,2 |1[M:2/4] F,2 F,2 :|2 C,4 ||[M:2/2] F,,8 |] %36
w: cha- cun iour, mais|chas- cun|sça-|voir.|
w: ||||

